src/assets/selectIconsSpells/guarigione_3.svg

<?xml version="1.0" encoding="UTF-8" standalone="no"?>
<!DOCTYPE svg PUBLIC "-//W3C//DTD SVG 1.1//EN" "http://www.w3.org/Graphics/SVG/1.1/DTD/svg11.dtd">
<svg width="100%" height="100%" viewBox="0 0 512 512" version="1.1" xmlns="http://www.w3.org/2000/svg" xmlns:xlink="http://www.w3.org/1999/xlink" xml:space="preserve" xmlns:serif="http://www.serif.com/" style="fill-rule:evenodd;clip-rule:evenodd;stroke-linejoin:round;stroke-miterlimit:2;">
    <rect x="0" y="0" width="512" height="512" style="fill-rule:nonzero;"/>
    <path d="M372.48,31.215C294.83,31.215 256,96.945 256,96.945C256,96.945 217.17,31.225 139.52,31.225C102.38,31.225 31.75,64.945 31.75,156.355C31.75,317.595 256,480.785 256,480.785C256,480.785 480.25,317.595 480.25,156.355C480.25,64.935 409.62,31.225 372.48,31.215ZM160,129L352,129L352,147L160,147L160,129ZM183,160L201,160L201,336L183,336L183,160ZM216,160L296,160C296,160 288,240 256,240C224,240 216,160 216,160ZM311,160L329,160L329,336L311,336L311,160ZM256,256C288,256 296,336 296,336L216,336C216,336 224,256 256,256ZM160,349L352,349L352,367L160,367L160,349Z" style="fill:rgb(255,176,85);fill-rule:nonzero;"/>
</svg>

<svg xmlns="http://www.w3.org/2000/svg" viewBox="0 0 512 512"><path d="M0 0h512v512H0z"/><path fill="#fff" d="M372.48 31.215c-77.65 0-116.48 65.73-116.48 65.73s-38.83-65.72-116.48-65.72c-37.14 0-107.77 33.72-107.77 125.13 0 161.24 224.25 324.43 224.25 324.43s224.25-163.19 224.25-324.43c0-91.42-70.63-125.13-107.77-125.14zM160 129h192v18H160v-18zm23 31h18v176h-18V160zm33 0h80s-8 80-40 80-40-80-40-80zm95 0h18v176h-18V160zm-55 96c32 0 40 80 40 80h-80s8-80 40-80zm-96 93h192v18H160v-18z"/></svg>
